X: 1
T: Mull Of The Woods
M: 3/4
L: 1/8
R: waltz
K: Dmaj
|:d3 c B2|A4  A2|f6  |f6  |e3 d B2|d4 f2|e4 d2|B A3-A2|
A4 A2|f4 g2|a4  f2|e3 d e2|f3 e d2|B d3 B2| A6 |A6  :|
|:d2 f2 d2|B2 d2 B2|A3 d f2|f a3 f2|e4 e2|f3 e d2|B4 B2|B d3 B2|
A4 A2|f4 g2|a4 f2|e3 d e2|f3 e d2|1 B d3 B2| A6 |A6  :|2 B d3 c2|d6 |d6 ||
